assets/logos/icons/mobile.svg

<svg height="24" viewBox="0 0 24 24" width="24" xmlns="http://www.w3.org/2000/svg"><path d="m7.99999998 3.99999996v16.00000004h8.00000002v-16.00000004zm-.00000001-2.00000001h8.00000003c1.1 0 2 .9 2 2v15.99999995c0 1.1000001-.9 2.0000002-2 2h-8.00000003c-1.1.0000002-2-.8999999-2-2v-15.99999995c0-1.1.9-2 2-2zm3.00000003 15.00000005h2v2h-2z" fill="#492f5c" fill-rule="evenodd"/></svg>

<svg xmlns="http://www.w3.org/2000/svg" xmlns:xlink="http://www.w3.org/1999/xlink" width="24" height="24" viewBox="0 0 24 24">
  <defs>
    <path id="mobile-a" d="M7.99999998,3.99999996 L7.99999998,20 L16,20 L16,3.99999996 L7.99999998,3.99999996 Z M7.99999997,1.99999995 L16,1.99999995 C17.1,1.99999995 18,2.89999995 18,3.99999995 L18,19.9999999 C18,21.1 17.1,22.0000001 16,21.9999999 L7.99999997,21.9999999 C6.89999997,22.0000001 5.99999997,21.1 5.99999997,19.9999999 L5.99999997,3.99999995 C5.99999997,2.89999995 6.89999997,1.99999995 7.99999997,1.99999995 Z M11,17 L13,17 L13,19 L11,19 L11,17 Z"/>
  </defs>
  <use fill="#492F5C" fill-rule="evenodd" xlink:href="#mobile-a"/>
</svg>
